flaticon/sewing/sewing.svg

<svg xmlns="http://www.w3.org/2000/svg" width="32" height="32" viewBox="0 0 24 24">
    <path d="M 23.878906 6.195312 C 23.714844 6.03125 23.472656 6.03125 23.308594 6.195312 C 21.90625 7.523438 20.75 7.683594 19.542969 6.640625 L 19.933594 6.316406 C 20.992188 5.21875 20.992188 3.46875 19.933594 2.414062 C 18.875 1.355469 17.128906 1.355469 16.027344 2.453125 L 15.714844 2.832031 L 15.296875 2.414062 C 14.199219 1.355469 12.449219 1.355469 11.394531 2.414062 C 10.863281 2.941406 10.578125 3.632812 10.578125 4.363281 C 10.578125 5.097656 10.863281 5.789062 11.394531 6.316406 L 12.195312 7.085938 L 6.457031 14.027344 L 5.089844 12.660156 C 3.992188 11.601562 2.242188 11.601562 1.183594 12.660156 C 0.65625 13.191406 0.371094 13.882812 0.371094 14.613281 C 0.371094 15.34375 0.65625 16.035156 1.183594 16.566406 L 2.929688 18.292969 L 0.0859375 21.730469 C -0.0351562 21.890625 -0.0351562 22.097656 0.128906 22.257812 C 0.210938 22.339844 0.289062 22.378906 0.414062 22.378906 C 0.492188 22.378906 0.617188 22.339844 0.65625 22.300781 L 4.09375 19.449219 L 6.511719 21.851562 C 6.59375 21.933594 6.675781 21.972656 6.796875 21.972656 C 6.878906 21.972656 7 21.933594 7.082031 21.890625 C 7.246094 21.730469 7.246094 21.484375 7.082031 21.324219 L 4.703125 18.945312 L 9.835938 14.6875 L 11.066406 15.953125 C 11.597656 16.484375 12.289062 16.726562 12.9375 16.726562 C 13.710938 16.726562 14.441406 16.402344 15.011719 15.953125 C 16.070312 14.855469 16.070312 13.109375 15.011719 12.050781 L 14.085938 11.164062 L 18.917969 7.160156 C 19.628906 7.808594 20.371094 8.148438 21.113281 8.148438 C 22.007812 8.148438 22.941406 7.699219 23.878906 6.765625 C 24.039062 6.601562 24.039062 6.355469 23.878906 6.195312 Z M 11.960938 5.746094 C 11.597656 5.382812 11.394531 4.894531 11.394531 4.363281 C 11.394531 3.835938 11.597656 3.347656 11.960938 2.980469 C 12.734375 2.210938 13.953125 2.210938 14.726562 2.980469 L 15.199219 3.453125 L 12.710938 6.464844 Z M 1.753906 15.996094 C 1.386719 15.628906 1.183594 15.140625 1.183594 14.613281 C 1.183594 14.085938 1.386719 13.597656 1.753906 13.230469 C 2.527344 12.457031 3.746094 12.457031 4.519531 13.230469 L 5.941406 14.652344 L 3.4375 17.679688 Z M 3.460938 18.921875 L 3.507812 18.871094 L 3.515625 18.878906 Z M 4.015625 18.253906 L 15.773438 4.027344 L 16.78125 5.035156 L 16.394531 5.421875 C 16.230469 5.585938 16.230469 5.828125 16.394531 5.992188 C 16.476562 6.074219 16.558594 6.113281 16.679688 6.113281 C 16.800781 6.113281 16.882812 6.074219 16.964844 5.992188 L 18.304688 4.648438 C 18.46875 4.488281 18.46875 4.242188 18.304688 4.078125 C 18.144531 3.917969 17.898438 3.917969 17.738281 4.078125 L 17.351562 4.464844 L 16.289062 3.40625 L 16.640625 2.980469 C 17.003906 2.617188 17.492188 2.414062 18.023438 2.414062 C 18.550781 2.414062 18.996094 2.617188 19.363281 2.980469 C 19.730469 3.347656 19.933594 3.835938 19.933594 4.363281 C 19.933594 4.894531 19.730469 5.382812 19.40625 5.707031 L 4.128906 18.371094 Z M 14.441406 12.660156 C 15.175781 13.433594 15.175781 14.652344 14.441406 15.386719 C 13.710938 15.996094 12.449219 16.160156 11.675781 15.386719 L 10.460938 14.167969 L 13.464844 11.679688 Z M 14.441406 12.660156"/>
</svg>

<svg xmlns="http://www.w3.org/2000/svg" width="32" height="32" viewBox="0 0 24 24">
    <path d="M23.879 6.195a.392.392 0 0 0-.57 0c-1.403 1.328-2.559 1.489-3.766.446l.39-.325c1.06-1.097 1.06-2.847 0-3.902-1.058-1.059-2.804-1.059-3.906.04l-.312.378-.418-.418c-1.098-1.059-2.848-1.059-3.902 0a2.725 2.725 0 0 0-.817 1.95c0 .734.285 1.425.817 1.952l.8.77-5.738 6.941L5.09 12.66c-1.098-1.058-2.848-1.058-3.906 0a2.753 2.753 0 0 0 0 3.906l1.746 1.727L.086 21.73a.381.381 0 0 0 .043.528c.082.082.16.12.285.12.078 0 .203-.038.242-.077l3.438-2.852 2.418 2.403a.37.37 0 0 0 .285.12c.082 0 .203-.038.285-.081a.387.387 0 0 0 0-.567l-2.379-2.379 5.133-4.258 1.23 1.266a2.648 2.648 0 0 0 1.871.774c.774 0 1.504-.325 2.075-.774 1.058-1.098 1.058-2.844 0-3.902l-.926-.887 4.832-4.004c.71.649 1.453.988 2.195.988.895 0 1.828-.449 2.766-1.382a.399.399 0 0 0 0-.57zM11.96 5.746a1.936 1.936 0 0 1-.566-1.383 1.95 1.95 0 0 1 3.332-1.383l.472.473-2.488 3.012zM1.754 15.996a1.937 1.937 0 0 1-.57-1.383c0-.527.203-1.015.57-1.383a1.938 1.938 0 0 1 2.766 0l1.421 1.422-2.503 3.028zm1.707 2.926l.047-.05.008.007zm.555-.668L15.773 4.027l1.008 1.008-.386.387a.392.392 0 0 0 0 .57.37.37 0 0 0 .285.121.37.37 0 0 0 .285-.12l1.34-1.345a.392.392 0 0 0 0-.57.394.394 0 0 0-.567 0l-.386.387-1.063-1.059.352-.426a1.936 1.936 0 0 1 1.382-.566c.528 0 .973.203 1.34.566.367.368.57.856.57 1.383 0 .532-.203 1.02-.527 1.344L4.13 18.371zM14.44 12.66c.735.774.735 1.992 0 2.727-.73.61-1.992.773-2.765 0l-1.215-1.219 3.004-2.488zm0 0"/>
</svg>
